packages/heroicons/src/prism/new-window.svg

<!-- Generated by IcoMoon.io -->
<svg version="1.1" xmlns="http://www.w3.org/2000/svg" width="16" height="16" viewBox="0 0 16 16">
<title>new-window</title>
<path fill="#4a4a4a" d="M10 12.4v-3.595l1.6-1.6v6.795h-9.6v-9.6h6.795l-1.6 1.6h-3.595v6.4zM14 2v5.205l-2.005-2.005-5.995 6.005-1.195-1.163 5.995-6.037-2.005-2.005z"></path>
</svg>

<svg xmlns="http://www.w3.org/2000/svg" aria-hidden="true" fill="currentColor" viewBox="0 0 16 16">
  <path d="M10 12.4V8.805l1.6-1.6V14H2V4.4h6.795L7.195 6H3.6v6.4zM14 2v5.205L11.995 5.2 6 11.205l-1.195-1.163L10.8 4.005 8.795 2z"/>
</svg>
